packages/kaspersky-hexa-ui-icons/src/iconsSVGs/48/ConnectionOff.svg

<svg xmlns="http://www.w3.org/2000/svg" width="48" height="48" fill="none" viewBox="0 0 48 48"><path fill="currentColor" fill-rule="evenodd" d="M37.5 46c-4.687 0-8.5-3.813-8.5-8.5s3.813-8.5 8.5-8.5 8.5 3.813 8.5 8.5-3.813 8.5-8.5 8.5m0-19C31.71 27 27 31.71 27 37.5S31.71 48 37.5 48 48 43.29 48 37.5 43.29 27 37.5 27m4.012 7.902L38.914 37.5l2.598 2.598-1.414 1.414-2.598-2.598-2.598 2.598-1.414-1.414 2.598-2.598-2.598-2.598 1.414-1.414 2.598 2.598 2.598-2.598zM3.512 32h8.677c1.019 5.705 3.106 10.375 5.829 13.166C11.376 43.287 6.006 38.362 3.512 32m-.674-14h9.041c-.247 1.912-.379 3.921-.379 6s.132 4.088.379 6H2.838C2.297 28.091 2 26.08 2 24s.297-4.091.838-6m15.18-15.166c-2.723 2.791-4.81 7.461-5.829 13.166H3.512C6.006 9.638 11.376 4.713 18.018 2.834M44.488 16h-8.677c-1.019-5.705-3.106-10.375-5.829-13.166C36.624 4.713 41.994 9.638 44.488 16M25 16V2.107c3.928.82 7.298 6.403 8.744 13.893zM23 2.107V16h-8.75C15.693 8.521 19.068 2.928 23 2.107M23 30h-9.082c-.27-1.916-.418-3.929-.418-6s.148-4.084.418-6H23zm-8.75 2H23v13.893c-3.932-.821-7.307-6.414-8.75-13.893M25 45.96V18h9.077c.273 1.935.422 3.969.422 6.064l-.001.101 2.001-.064L36.5 24c0-2.079-.132-4.088-.379-6h9.041c.541 1.909.838 3.92.838 6 0 1.163-.095 2.339-.28 3.494l1.974.319C47.897 26.552 48 25.27 48 24 48 10.767 37.233 0 24 0S0 10.767 0 24s10.767 24 24 24c1.269 0 2.552-.103 3.813-.306l-.318-1.974c-.826.133-1.661.201-2.495.24" clip-rule="evenodd"/></svg>

<svg width="48" height="48" viewBox="0 0 48 48" fill="none" xmlns="http://www.w3.org/2000/svg">
<path fill-rule="evenodd" clip-rule="evenodd" d="M37.5 46C32.813 46 29 42.187 29 37.5C29 32.813 32.813 29 37.5 29C42.187 29 46 32.813 46 37.5C46 42.187 42.187 46 37.5 46ZM37.5 27C31.71 27 27 31.71 27 37.5C27 43.29 31.71 48 37.5 48C43.29 48 48 43.29 48 37.5C48 31.71 43.29 27 37.5 27ZM41.512 34.902L38.914 37.5L41.512 40.098L40.098 41.512L37.5 38.914L34.902 41.512L33.488 40.098L36.086 37.5L33.488 34.902L34.902 33.488L37.5 36.086L40.098 33.488L41.512 34.902ZM3.512 32H12.189C13.208 37.705 15.295 42.375 18.018 45.166C11.376 43.287 6.006 38.362 3.512 32ZM2.838 18H11.879C11.632 19.912 11.5 21.921 11.5 24C11.5 26.079 11.632 28.088 11.879 30H2.838C2.297 28.091 2 26.08 2 24C2 21.92 2.297 19.909 2.838 18ZM18.018 2.834C15.295 5.625 13.208 10.295 12.189 16H3.512C6.006 9.638 11.376 4.713 18.018 2.834ZM44.488 16H35.811C34.792 10.295 32.705 5.625 29.982 2.834C36.624 4.713 41.994 9.638 44.488 16ZM25 16V2.107C28.928 2.927 32.298 8.51 33.744 16H25ZM23 2.107V16H14.25C15.693 8.521 19.068 2.928 23 2.107ZM23 30H13.918C13.648 28.084 13.5 26.071 13.5 24C13.5 21.929 13.648 19.916 13.918 18H23V30ZM14.25 32H23V45.893C19.068 45.072 15.693 39.479 14.25 32ZM25 45.96V18H34.077C34.35 19.935 34.499 21.969 34.499 24.064L34.498 24.165L36.499 24.101L36.5 24C36.5 21.921 36.368 19.912 36.121 18H45.162C45.703 19.909 46 21.92 46 24C46 25.163 45.905 26.339 45.72 27.494L47.694 27.813C47.897 26.552 48 25.27 48 24C48 10.767 37.233 0 24 0C10.767 0 0 10.767 0 24C0 37.233 10.767 48 24 48C25.269 48 26.552 47.897 27.813 47.694L27.495 45.72C26.669 45.853 25.834 45.921 25 45.96Z"  fill="currentColor"/>
</svg>
